images/16757940.svg

<?xml version="1.0" encoding="UTF-8"?>
<svg xmlns="http://www.w3.org/2000/svg" xmlns:xlink="http://www.w3.org/1999/xlink" width="300pt" height="300pt" viewBox="0 0 300 300" version="1.1">
<defs>
<g>
<symbol overflow="visible" id="glyph0-0">
<path style="stroke:none;" d="M 0.453125 1.59375 L 0.453125 -6.34375 L 4.953125 -6.34375 L 4.953125 1.59375 Z M 0.953125 1.09375 L 4.453125 1.09375 L 4.453125 -5.84375 L 0.953125 -5.84375 Z M 0.953125 1.09375 "/>
</symbol>
<symbol overflow="visible" id="glyph0-1">
<path style="stroke:none;" d="M 3.546875 -5.953125 C 2.898438 -5.953125 2.382812 -5.710938 2 -5.234375 C 1.625 -4.753906 1.4375 -4.101562 1.4375 -3.28125 C 1.4375 -2.445312 1.625 -1.789062 2 -1.3125 C 2.382812 -0.832031 2.898438 -0.59375 3.546875 -0.59375 C 4.191406 -0.59375 4.703125 -0.832031 5.078125 -1.3125 C 5.453125 -1.789062 5.640625 -2.445312 5.640625 -3.28125 C 5.640625 -4.101562 5.453125 -4.753906 5.078125 -5.234375 C 4.703125 -5.710938 4.191406 -5.953125 3.546875 -5.953125 Z M 3.546875 -6.6875 C 4.460938 -6.6875 5.195312 -6.375 5.75 -5.75 C 6.300781 -5.132812 6.578125 -4.3125 6.578125 -3.28125 C 6.578125 -2.238281 6.300781 -1.410156 5.75 -0.796875 C 5.195312 -0.179688 4.460938 0.125 3.546875 0.125 C 2.617188 0.125 1.878906 -0.179688 1.328125 -0.796875 C 0.773438 -1.410156 0.5 -2.238281 0.5 -3.28125 C 0.5 -4.3125 0.773438 -5.132812 1.328125 -5.75 C 1.878906 -6.375 2.617188 -6.6875 3.546875 -6.6875 Z M 3.546875 -6.6875 "/>
</symbol>
<symbol overflow="visible" id="glyph0-2">
<path style="stroke:none;" d="M 0.890625 -6.5625 L 1.765625 -6.5625 L 1.765625 -3.875 L 5 -3.875 L 5 -6.5625 L 5.890625 -6.5625 L 5.890625 0 L 5 0 L 5 -3.125 L 1.765625 -3.125 L 1.765625 0 L 0.890625 0 Z M 0.890625 -6.5625 "/>
</symbol>
</g>
</defs>
<g id="surface30621">
<rect x="0" y="0" width="300" height="300" style="fill:rgb(100%,100%,100%);fill-opacity:1;stroke:none;"/>
<path style="fill:none;stroke-width:1.2;stroke-linecap:butt;stroke-linejoin:miter;stroke:rgb(0%,0%,0%);stroke-opacity:1;stroke-miterlimit:10;" d="M 66.507812 72.914062 L 82.230469 91.035156 "/>
<path style="fill:none;stroke-width:1.2;stroke-linecap:butt;stroke-linejoin:miter;stroke:rgb(0%,0%,0%);stroke-opacity:1;stroke-miterlimit:10;" d="M 82.765625 93.804688 L 94.542969 91.527344 "/>
<path style="fill:none;stroke-width:1.2;stroke-linecap:butt;stroke-linejoin:miter;stroke:rgb(100%,0%,0%);stroke-opacity:1;stroke-miterlimit:10;" d="M 94.542969 91.527344 L 106.316406 89.25 "/>
<path style="fill:none;stroke-width:1.2;stroke-linecap:butt;stroke-linejoin:miter;stroke:rgb(0%,0%,0%);stroke-opacity:1;stroke-miterlimit:10;" d="M 81.691406 88.261719 L 93.46875 85.984375 "/>
<path style="fill:none;stroke-width:1.2;stroke-linecap:butt;stroke-linejoin:miter;stroke:rgb(100%,0%,0%);stroke-opacity:1;stroke-miterlimit:10;" d="M 93.46875 85.984375 L 105.246094 83.707031 "/>
<path style="fill:none;stroke-width:1.2;stroke-linecap:butt;stroke-linejoin:miter;stroke:rgb(0%,0%,0%);stroke-opacity:1;stroke-miterlimit:10;" d="M 82.230469 91.035156 L 78.3125 102.371094 "/>
<path style="fill:none;stroke-width:1.2;stroke-linecap:butt;stroke-linejoin:miter;stroke:rgb(100%,0%,0%);stroke-opacity:1;stroke-miterlimit:10;" d="M 78.3125 102.371094 L 74.398438 113.710938 "/>
<path style=" stroke:none;fill-rule:nonzero;fill:rgb(100%,100%,100%);fill-opacity:1;" d="M 101.78125 80.976562 L 109.78125 80.976562 L 109.78125 91.976562 L 101.78125 91.976562 Z M 101.78125 80.976562 "/>
<g style="fill:rgb(100%,0%,0%);fill-opacity:1;">
  <use xlink:href="#glyph0-1" x="101.78125" y="89.639648"/>
</g>
<path style="fill:none;stroke-width:1.2;stroke-linecap:butt;stroke-linejoin:miter;stroke:rgb(100%,0%,0%);stroke-opacity:1;stroke-miterlimit:10;" d="M 74.398438 113.710938 L 82.261719 122.769531 "/>
<path style="fill:none;stroke-width:1.2;stroke-linecap:butt;stroke-linejoin:miter;stroke:rgb(0%,0%,0%);stroke-opacity:1;stroke-miterlimit:10;" d="M 82.261719 122.769531 L 90.121094 131.828125 "/>
<path style=" stroke:none;fill-rule:nonzero;fill:rgb(100%,100%,100%);fill-opacity:1;" d="M 70.398438 108.210938 L 78.398438 108.210938 L 78.398438 119.210938 L 70.398438 119.210938 Z M 70.398438 108.210938 "/>
<g style="fill:rgb(100%,0%,0%);fill-opacity:1;">
  <use xlink:href="#glyph0-1" x="70.398438" y="116.874023"/>
</g>
<path style="fill:none;stroke-width:1.2;stroke-linecap:butt;stroke-linejoin:miter;stroke:rgb(0%,0%,0%);stroke-opacity:1;stroke-miterlimit:10;" d="M 90.121094 131.828125 L 113.671875 127.269531 "/>
<path style="fill:none;stroke-width:1.2;stroke-linecap:butt;stroke-linejoin:miter;stroke:rgb(0%,0%,0%);stroke-opacity:1;stroke-miterlimit:10;" d="M 82.292969 154.503906 L 90.121094 131.828125 "/>
<path style="fill:none;stroke-width:1.2;stroke-linecap:butt;stroke-linejoin:miter;stroke:rgb(0%,0%,0%);stroke-opacity:1;stroke-miterlimit:10;" d="M 113.671875 127.269531 L 137.226562 122.714844 "/>
<path style="fill:none;stroke-width:1;stroke-linecap:butt;stroke-linejoin:miter;stroke:rgb(0%,0%,0%);stroke-opacity:1;stroke-miterlimit:10;" d="M 113.671875 127.269531 L 113.671875 127.269531 M 112.132812 124.699219 L 111.34375 125.382812 M 110.589844 122.125 L 109.015625 123.492188 M 109.046875 119.550781 L 106.683594 121.601562 M 107.503906 116.980469 L 104.355469 119.710938 M 105.960938 114.40625 L 102.023438 117.824219 M 104.417969 111.832031 L 99.695312 115.933594 M 102.875 109.257812 L 97.363281 114.042969 M 101.332031 106.6875 L 95.035156 112.152344 M 101.148438 106.378906 L 94.753906 111.925781 "/>
<path style="fill:none;stroke-width:1.2;stroke-linecap:butt;stroke-linejoin:miter;stroke:rgb(0%,0%,0%);stroke-opacity:1;stroke-miterlimit:10;" d="M 105.84375 149.945312 L 113.671875 127.269531 "/>
<path style="fill:none;stroke-width:1.2;stroke-linecap:butt;stroke-linejoin:miter;stroke:rgb(0%,0%,0%);stroke-opacity:1;stroke-miterlimit:10;" d="M 137.226562 122.714844 L 152.949219 140.832031 "/>
<path style="fill:none;stroke-width:1.2;stroke-linecap:butt;stroke-linejoin:miter;stroke:rgb(0%,0%,0%);stroke-opacity:1;stroke-miterlimit:10;" d="M 134.535156 128.226562 L 147.113281 142.71875 "/>
<path style="fill:none;stroke-width:1.2;stroke-linecap:butt;stroke-linejoin:miter;stroke:rgb(0%,0%,0%);stroke-opacity:1;stroke-miterlimit:10;" d="M 152.949219 140.832031 L 145.117188 163.507812 "/>
<path style="fill:none;stroke-width:1.2;stroke-linecap:butt;stroke-linejoin:miter;stroke:rgb(0%,0%,0%);stroke-opacity:1;stroke-miterlimit:10;" d="M 176.5 136.277344 L 152.949219 140.832031 "/>
<path style="fill:none;stroke-width:1.2;stroke-linecap:butt;stroke-linejoin:miter;stroke:rgb(0%,0%,0%);stroke-opacity:1;stroke-miterlimit:10;" d="M 145.117188 163.507812 L 160.839844 181.625 "/>
<path style="fill:none;stroke-width:1.2;stroke-linecap:butt;stroke-linejoin:miter;stroke:rgb(0%,0%,0%);stroke-opacity:1;stroke-miterlimit:10;" d="M 145.117188 163.507812 L 121.566406 168.0625 "/>
<path style="fill:none;stroke-width:1.2;stroke-linecap:butt;stroke-linejoin:miter;stroke:rgb(0%,0%,0%);stroke-opacity:1;stroke-miterlimit:10;" d="M 160.839844 181.625 L 184.390625 177.070312 "/>
<path style="fill:none;stroke-width:1.2;stroke-linecap:butt;stroke-linejoin:miter;stroke:rgb(0%,0%,0%);stroke-opacity:1;stroke-miterlimit:10;" d="M 184.390625 177.070312 L 192.222656 154.394531 "/>
<path style="fill:none;stroke-width:1.2;stroke-linecap:butt;stroke-linejoin:miter;stroke:rgb(0%,0%,0%);stroke-opacity:1;stroke-miterlimit:10;" d="M 192.222656 154.394531 L 176.5 136.277344 "/>
<path style=" stroke:none;fill-rule:nonzero;fill:rgb(0%,0%,0%);fill-opacity:1;" d="M 192.222656 154.394531 L 204.746094 175.289062 L 211.140625 169.738281 Z M 192.222656 154.394531 "/>
<path style="fill:none;stroke-width:1.2;stroke-linecap:butt;stroke-linejoin:miter;stroke:rgb(0%,0%,0%);stroke-opacity:1;stroke-miterlimit:10;" d="M 215.773438 149.835938 L 192.222656 154.394531 "/>
<path style="fill:none;stroke-width:1.2;stroke-linecap:butt;stroke-linejoin:miter;stroke:rgb(0%,0%,0%);stroke-opacity:1;stroke-miterlimit:10;" d="M 176.5 136.277344 L 184.332031 113.601562 "/>
<path style="fill:none;stroke-width:1.2;stroke-linecap:butt;stroke-linejoin:miter;stroke:rgb(0%,0%,0%);stroke-opacity:1;stroke-miterlimit:10;" d="M 184.332031 113.601562 L 207.882812 109.042969 "/>
<path style="fill:none;stroke-width:1.2;stroke-linecap:butt;stroke-linejoin:miter;stroke:rgb(0%,0%,0%);stroke-opacity:1;stroke-miterlimit:10;" d="M 210.550781 109.964844 L 214.464844 98.628906 "/>
<path style="fill:none;stroke-width:1.2;stroke-linecap:butt;stroke-linejoin:miter;stroke:rgb(100%,0%,0%);stroke-opacity:1;stroke-miterlimit:10;" d="M 214.464844 98.628906 L 218.378906 87.289062 "/>
<path style="fill:none;stroke-width:1.2;stroke-linecap:butt;stroke-linejoin:miter;stroke:rgb(0%,0%,0%);stroke-opacity:1;stroke-miterlimit:10;" d="M 205.214844 108.125 L 209.128906 96.785156 "/>
<path style="fill:none;stroke-width:1.2;stroke-linecap:butt;stroke-linejoin:miter;stroke:rgb(100%,0%,0%);stroke-opacity:1;stroke-miterlimit:10;" d="M 209.128906 96.785156 L 213.042969 85.449219 "/>
<path style="fill:none;stroke-width:1.2;stroke-linecap:butt;stroke-linejoin:miter;stroke:rgb(0%,0%,0%);stroke-opacity:1;stroke-miterlimit:10;" d="M 207.882812 109.042969 L 215.742188 118.105469 "/>
<path style="fill:none;stroke-width:1.2;stroke-linecap:butt;stroke-linejoin:miter;stroke:rgb(100%,0%,0%);stroke-opacity:1;stroke-miterlimit:10;" d="M 215.742188 118.105469 L 223.605469 127.164062 "/>
<path style=" stroke:none;fill-rule:nonzero;fill:rgb(100%,100%,100%);fill-opacity:1;" d="M 211.710938 80.871094 L 219.710938 80.871094 L 219.710938 91.871094 L 211.710938 91.871094 Z M 211.710938 80.871094 "/>
<g style="fill:rgb(100%,0%,0%);fill-opacity:1;">
  <use xlink:href="#glyph0-1" x="211.710938" y="89.53418"/>
</g>
<path style="fill:none;stroke-width:1.2;stroke-linecap:butt;stroke-linejoin:miter;stroke:rgb(100%,0%,0%);stroke-opacity:1;stroke-miterlimit:10;" d="M 223.605469 127.164062 L 219.691406 138.5 "/>
<path style="fill:none;stroke-width:1.2;stroke-linecap:butt;stroke-linejoin:miter;stroke:rgb(0%,0%,0%);stroke-opacity:1;stroke-miterlimit:10;" d="M 219.691406 138.5 L 215.773438 149.835938 "/>
<path style=" stroke:none;fill-rule:nonzero;fill:rgb(100%,100%,100%);fill-opacity:1;" d="M 219.605469 121.664062 L 227.605469 121.664062 L 227.605469 132.664062 L 219.605469 132.664062 Z M 219.605469 121.664062 "/>
<g style="fill:rgb(100%,0%,0%);fill-opacity:1;">
  <use xlink:href="#glyph0-1" x="219.605469" y="130.327148"/>
</g>
<path style="fill:none;stroke-width:1.2;stroke-linecap:butt;stroke-linejoin:miter;stroke:rgb(0%,0%,0%);stroke-opacity:1;stroke-miterlimit:10;" d="M 215.773438 149.835938 L 231.496094 167.957031 "/>
<path style="fill:none;stroke-width:1.2;stroke-linecap:butt;stroke-linejoin:miter;stroke:rgb(0%,0%,0%);stroke-opacity:1;stroke-miterlimit:10;" d="M 231.496094 167.957031 L 255.394531 165.886719 "/>
<path style="fill:none;stroke-width:1.2;stroke-linecap:butt;stroke-linejoin:miter;stroke:rgb(0%,0%,0%);stroke-opacity:1;stroke-miterlimit:10;" d="M 234.375 173.371094 L 253.492188 171.71875 "/>
<path style="fill:none;stroke-width:1.2;stroke-linecap:butt;stroke-linejoin:miter;stroke:rgb(0%,0%,0%);stroke-opacity:1;stroke-miterlimit:10;" d="M 226.078125 191.324219 L 231.496094 167.957031 "/>
<path style="fill:none;stroke-width:1.2;stroke-linecap:butt;stroke-linejoin:miter;stroke:rgb(0%,0%,0%);stroke-opacity:1;stroke-miterlimit:10;" d="M 255.394531 165.886719 L 260.074219 176.929688 "/>
<path style="fill:none;stroke-width:1.2;stroke-linecap:butt;stroke-linejoin:miter;stroke:rgb(100%,0%,0%);stroke-opacity:1;stroke-miterlimit:10;" d="M 260.074219 176.929688 L 264.75 187.976562 "/>
<path style="fill:none;stroke-width:1.2;stroke-linecap:butt;stroke-linejoin:miter;stroke:rgb(100%,0%,0%);stroke-opacity:1;stroke-miterlimit:10;" d="M 264.75 187.976562 L 255.691406 195.835938 "/>
<path style="fill:none;stroke-width:1.2;stroke-linecap:butt;stroke-linejoin:miter;stroke:rgb(0%,0%,0%);stroke-opacity:1;stroke-miterlimit:10;" d="M 255.691406 195.835938 L 246.632812 203.699219 "/>
<path style=" stroke:none;fill-rule:nonzero;fill:rgb(100%,100%,100%);fill-opacity:1;" d="M 260.75 182.476562 L 268.75 182.476562 L 268.75 193.476562 L 260.75 193.476562 Z M 260.75 182.476562 "/>
<g style="fill:rgb(100%,0%,0%);fill-opacity:1;">
  <use xlink:href="#glyph0-1" x="260.75" y="191.139648"/>
</g>
<path style="fill:none;stroke-width:1.2;stroke-linecap:butt;stroke-linejoin:miter;stroke:rgb(0%,0%,0%);stroke-opacity:1;stroke-miterlimit:10;" d="M 246.632812 203.699219 L 226.078125 191.324219 "/>
<path style="fill:none;stroke-width:1.2;stroke-linecap:butt;stroke-linejoin:miter;stroke:rgb(0%,0%,0%);stroke-opacity:1;stroke-miterlimit:10;" d="M 247.488281 197.625 L 231.046875 187.726562 "/>
<path style="fill:none;stroke-width:1.2;stroke-linecap:butt;stroke-linejoin:miter;stroke:rgb(0%,0%,0%);stroke-opacity:1;stroke-miterlimit:10;" d="M 121.566406 168.0625 L 105.84375 149.945312 "/>
<path style="fill:none;stroke-width:1.2;stroke-linecap:butt;stroke-linejoin:miter;stroke:rgb(0%,0%,0%);stroke-opacity:1;stroke-miterlimit:10;" d="M 121.566406 168.0625 L 98.015625 172.621094 "/>
<path style=" stroke:none;fill-rule:nonzero;fill:rgb(0%,0%,0%);fill-opacity:1;" d="M 121.566406 168.0625 L 109.734375 189.359375 L 117.738281 192.121094 Z M 121.566406 168.0625 "/>
<path style="fill:none;stroke-width:1.2;stroke-linecap:butt;stroke-linejoin:miter;stroke:rgb(0%,0%,0%);stroke-opacity:1;stroke-miterlimit:10;" d="M 105.996094 147.128906 L 99.628906 146.789062 "/>
<path style="fill:none;stroke-width:1.2;stroke-linecap:butt;stroke-linejoin:miter;stroke:rgb(100%,0%,0%);stroke-opacity:1;stroke-miterlimit:10;" d="M 99.628906 146.789062 L 93.265625 146.449219 "/>
<path style="fill:none;stroke-width:1.2;stroke-linecap:butt;stroke-linejoin:miter;stroke:rgb(0%,0%,0%);stroke-opacity:1;stroke-miterlimit:10;" d="M 105.695312 152.765625 L 99.328125 152.425781 "/>
<path style="fill:none;stroke-width:1.2;stroke-linecap:butt;stroke-linejoin:miter;stroke:rgb(100%,0%,0%);stroke-opacity:1;stroke-miterlimit:10;" d="M 99.328125 152.425781 L 92.964844 152.085938 "/>
<path style=" stroke:none;fill-rule:nonzero;fill:rgb(100%,100%,100%);fill-opacity:1;" d="M 85.113281 143.765625 L 93.113281 143.765625 L 93.113281 154.765625 L 85.113281 154.765625 Z M 85.113281 143.765625 "/>
<g style="fill:rgb(100%,0%,0%);fill-opacity:1;">
  <use xlink:href="#glyph0-1" x="85.113281" y="152.428711"/>
</g>
<path style="fill:none;stroke-width:1.2;stroke-linecap:butt;stroke-linejoin:miter;stroke:rgb(0%,0%,0%);stroke-opacity:1;stroke-miterlimit:10;" d="M 98.015625 172.621094 L 82.292969 154.503906 "/>
<path style="fill:none;stroke-width:1.2;stroke-linecap:butt;stroke-linejoin:miter;stroke:rgb(0%,0%,0%);stroke-opacity:1;stroke-miterlimit:10;" d="M 98.015625 172.621094 L 90.183594 195.296875 "/>
<path style="fill:none;stroke-width:1.2;stroke-linecap:butt;stroke-linejoin:miter;stroke:rgb(0%,0%,0%);stroke-opacity:1;stroke-miterlimit:10;" d="M 82.292969 154.503906 L 67.179688 173.132812 "/>
<path style="fill:none;stroke-width:1.2;stroke-linecap:butt;stroke-linejoin:miter;stroke:rgb(0%,0%,0%);stroke-opacity:1;stroke-miterlimit:10;" d="M 82.292969 154.503906 L 61.320312 142.855469 "/>
<path style="fill:none;stroke-width:1.2;stroke-linecap:butt;stroke-linejoin:miter;stroke:rgb(0%,0%,0%);stroke-opacity:1;stroke-miterlimit:10;" d="M 90.183594 195.296875 L 66.632812 199.851562 "/>
<path style="fill:none;stroke-width:1.2;stroke-linecap:butt;stroke-linejoin:miter;stroke:rgb(0%,0%,0%);stroke-opacity:1;stroke-miterlimit:10;" d="M 68.761719 198.003906 L 60.902344 188.945312 "/>
<path style="fill:none;stroke-width:1.2;stroke-linecap:butt;stroke-linejoin:miter;stroke:rgb(100%,0%,0%);stroke-opacity:1;stroke-miterlimit:10;" d="M 60.902344 188.945312 L 53.042969 179.882812 "/>
<path style="fill:none;stroke-width:1.2;stroke-linecap:butt;stroke-linejoin:miter;stroke:rgb(0%,0%,0%);stroke-opacity:1;stroke-miterlimit:10;" d="M 64.5 201.703125 L 56.640625 192.644531 "/>
<path style="fill:none;stroke-width:1.2;stroke-linecap:butt;stroke-linejoin:miter;stroke:rgb(100%,0%,0%);stroke-opacity:1;stroke-miterlimit:10;" d="M 56.640625 192.644531 L 48.777344 183.582031 "/>
<path style="fill:none;stroke-width:1.2;stroke-linecap:butt;stroke-linejoin:miter;stroke:rgb(0%,0%,0%);stroke-opacity:1;stroke-miterlimit:10;" d="M 66.632812 199.851562 L 62.71875 211.191406 "/>
<path style="fill:none;stroke-width:1.2;stroke-linecap:butt;stroke-linejoin:miter;stroke:rgb(100%,0%,0%);stroke-opacity:1;stroke-miterlimit:10;" d="M 62.71875 211.191406 L 58.800781 222.527344 "/>
<path style=" stroke:none;fill-rule:nonzero;fill:rgb(100%,100%,100%);fill-opacity:1;" d="M 42.910156 176.234375 L 50.910156 176.234375 L 50.910156 187.234375 L 42.910156 187.234375 Z M 42.910156 176.234375 "/>
<g style="fill:rgb(100%,0%,0%);fill-opacity:1;">
  <use xlink:href="#glyph0-1" x="42.910156" y="184.897461"/>
</g>
<path style="fill:none;stroke-width:1.2;stroke-linecap:butt;stroke-linejoin:miter;stroke:rgb(100%,0%,0%);stroke-opacity:1;stroke-miterlimit:10;" d="M 58.800781 222.527344 L 47.027344 224.804688 "/>
<path style="fill:none;stroke-width:1.2;stroke-linecap:butt;stroke-linejoin:miter;stroke:rgb(0%,0%,0%);stroke-opacity:1;stroke-miterlimit:10;" d="M 47.027344 224.804688 L 35.25 227.085938 "/>
<path style=" stroke:none;fill-rule:nonzero;fill:rgb(100%,100%,100%);fill-opacity:1;" d="M 54.800781 217.027344 L 62.800781 217.027344 L 62.800781 228.027344 L 54.800781 228.027344 Z M 54.800781 217.027344 "/>
<g style="fill:rgb(100%,0%,0%);fill-opacity:1;">
  <use xlink:href="#glyph0-1" x="54.800781" y="225.69043"/>
</g>
<path style=" stroke:none;fill-rule:nonzero;fill:rgb(100%,100%,100%);fill-opacity:1;" d="M 82.953125 103.652344 L 97.953125 103.652344 L 97.953125 114.652344 L 82.953125 114.652344 Z M 82.953125 103.652344 "/>
<g style="fill:rgb(100%,0%,0%);fill-opacity:1;">
  <use xlink:href="#glyph0-2" x="82.953125" y="112.31543"/>
  <use xlink:href="#glyph0-1" x="89.967773" y="112.31543"/>
</g>
</g>
</svg>

<svg xmlns="http://www.w3.org/2000/svg" xmlns:xlink="http://www.w3.org/1999/xlink" width="300pt" height="300pt" viewBox="0 0 300 300"><defs><symbol overflow="visible"><path d="M.453 1.594v-7.938h4.5v7.938zm.5-.5h3.5v-6.938h-3.5zm0 0"/></symbol><symbol overflow="visible" id="a"><path d="M3.547-5.953c-.65 0-1.164.242-1.547.72-.375.48-.563 1.13-.563 1.952 0 .835.188 1.49.563 1.967.383.48.898.72 1.547.72.644 0 1.156-.24 1.53-.72.376-.476.564-1.132.564-1.968 0-.822-.187-1.474-.562-1.954-.375-.477-.887-.72-1.53-.72zm0-.734c.914 0 1.648.312 2.203.937.55.617.828 1.438.828 2.47 0 1.042-.277 1.87-.828 2.483-.555.617-1.29.922-2.203.922-.93 0-1.668-.305-2.22-.922C.774-1.41.5-2.237.5-3.28c0-1.033.273-1.853.828-2.47.55-.625 1.29-.938 2.22-.938zm0 0"/></symbol><symbol overflow="visible" id="b"><path d="M.89-6.563h.876v2.688H5v-2.688h.89V0H5v-3.125H1.766V0H.89zm0 0"/></symbol></defs><g><path fill="#fff" d="M0 0h300v300H0z"/><path d="M66.508 72.914l15.722 18.12M82.766 93.805l11.777-2.278" stroke-width="1.2" stroke="#000" stroke-miterlimit="10" fill="none"/><path d="M94.543 91.527l11.773-2.277" stroke-width="1.2" stroke="#f00" stroke-miterlimit="10" fill="none"/><path d="M81.69 88.262l11.78-2.278" stroke-width="1.2" stroke="#000" stroke-miterlimit="10" fill="none"/><path d="M93.47 85.984l11.776-2.277" stroke-width="1.2" stroke="#f00" stroke-miterlimit="10" fill="none"/><path d="M82.23 91.035l-3.918 11.336" stroke-width="1.2" stroke="#000" stroke-miterlimit="10" fill="none"/><path d="M78.313 102.37l-3.915 11.34" stroke-width="1.2" stroke="#f00" stroke-miterlimit="10" fill="none"/><path d="M101.78 80.977h8v11h-8zm0 0" fill="#fff"/><use xlink:href="#a" x="101.781" y="89.64" fill="#f00"/><path d="M74.398 113.71l7.864 9.06" stroke-width="1.2" stroke="#f00" stroke-miterlimit="10" fill="none"/><path d="M82.262 122.77l7.86 9.058" stroke-width="1.2" stroke="#000" stroke-miterlimit="10" fill="none"/><path d="M70.398 108.21h8v11h-8zm0 0" fill="#fff"/><use xlink:href="#a" x="70.398" y="116.874" fill="#f00"/><path d="M90.12 131.828l23.552-4.558M82.293 154.504l7.828-22.676M113.672 127.27l23.555-4.555" stroke-width="1.2" stroke="#000" stroke-miterlimit="10" fill="none"/><path d="M113.672 127.27m-1.54-2.57l-.788.683m-.754-3.258l-1.574 1.367m.03-3.94l-2.362 2.05m.82-4.622l-3.15 2.73m1.607-5.304l-3.937 3.418m2.395-5.992l-4.723 4.102m3.18-6.676l-5.512 4.785m3.97-7.356l-6.298 5.465m6.113-5.773l-6.394 5.546" stroke="#000" stroke-miterlimit="10" fill="none"/><path d="M105.844 149.945l7.828-22.675M137.227 122.715l15.722 18.117M134.535 128.227l12.578 14.492M152.95 140.832l-7.833 22.676M176.5 136.277l-23.55 4.555M145.117 163.508l15.723 18.117M145.117 163.508l-23.55 4.554M160.84 181.625l23.55-4.555M184.39 177.07l7.833-22.675M192.223 154.395L176.5 136.277" stroke-width="1.2" stroke="#000" stroke-miterlimit="10" fill="none"/><path d="M192.223 154.395l12.523 20.894 6.395-5.552zm0 0"/><path d="M215.773 149.836l-23.55 4.56M176.5 136.277l7.832-22.675M184.332 113.602l23.55-4.56M210.55 109.965l3.915-11.336" stroke-width="1.2" stroke="#000" stroke-miterlimit="10" fill="none"/><path d="M214.465 98.63l3.914-11.34" stroke-width="1.2" stroke="#f00" stroke-miterlimit="10" fill="none"/><path d="M205.215 108.125l3.914-11.34" stroke-width="1.2" stroke="#000" stroke-miterlimit="10" fill="none"/><path d="M209.13 96.785l3.913-11.336" stroke-width="1.2" stroke="#f00" stroke-miterlimit="10" fill="none"/><path d="M207.883 109.043l7.86 9.062" stroke-width="1.2" stroke="#000" stroke-miterlimit="10" fill="none"/><path d="M215.742 118.105l7.863 9.06" stroke-width="1.2" stroke="#f00" stroke-miterlimit="10" fill="none"/><path d="M211.71 80.87h8v11h-8zm0 0" fill="#fff"/><use xlink:href="#a" x="211.711" y="89.534" fill="#f00"/><path d="M223.605 127.164L219.69 138.5" stroke-width="1.2" stroke="#f00" stroke-miterlimit="10" fill="none"/><path d="M219.69 138.5l-3.917 11.336" stroke-width="1.2" stroke="#000" stroke-miterlimit="10" fill="none"/><path d="M219.605 121.664h8v11h-8zm0 0" fill="#fff"/><use xlink:href="#a" x="219.605" y="130.327" fill="#f00"/><path d="M215.773 149.836l15.723 18.12M231.496 167.957l23.9-2.07M234.375 173.37l19.117-1.65M226.078 191.324l5.418-23.367M255.395 165.887l4.68 11.043" stroke-width="1.2" stroke="#000" stroke-miterlimit="10" fill="none"/><path d="M260.074 176.93l4.676 11.047M264.75 187.977l-9.06 7.86" stroke-width="1.2" stroke="#f00" stroke-miterlimit="10" fill="none"/><path d="M255.69 195.836l-9.057 7.863" stroke-width="1.2" stroke="#000" stroke-miterlimit="10" fill="none"/><path d="M260.75 182.477h8v11h-8zm0 0" fill="#fff"/><use xlink:href="#a" x="260.75" y="191.14" fill="#f00"/><path d="M246.633 203.7l-20.555-12.376M247.488 197.625l-16.44-9.898M121.566 168.063l-15.722-18.118M121.566 168.063l-23.55 4.558" stroke-width="1.2" stroke="#000" stroke-miterlimit="10" fill="none"/><path d="M121.566 168.063l-11.832 21.296 8.004 2.76zm0 0"/><path d="M105.996 147.13l-6.367-.34" stroke-width="1.2" stroke="#000" stroke-miterlimit="10" fill="none"/><path d="M99.63 146.79l-6.364-.34" stroke-width="1.2" stroke="#f00" stroke-miterlimit="10" fill="none"/><path d="M105.695 152.766l-6.367-.34" stroke-width="1.2" stroke="#000" stroke-miterlimit="10" fill="none"/><path d="M99.328 152.426l-6.363-.34" stroke-width="1.2" stroke="#f00" stroke-miterlimit="10" fill="none"/><path d="M85.113 143.766h8v11h-8zm0 0" fill="#fff"/><use xlink:href="#a" x="85.113" y="152.429" fill="#f00"/><path d="M98.016 172.62l-15.723-18.116M98.016 172.62l-7.832 22.677M82.293 154.504l-15.113 18.63M82.293 154.504l-20.973-11.65M90.184 195.297l-23.55 4.555M68.762 198.004l-7.86-9.06" stroke-width="1.2" stroke="#000" stroke-miterlimit="10" fill="none"/><path d="M60.902 188.945l-7.86-9.062" stroke-width="1.2" stroke="#f00" stroke-miterlimit="10" fill="none"/><path d="M64.5 201.703l-7.86-9.058" stroke-width="1.2" stroke="#000" stroke-miterlimit="10" fill="none"/><path d="M56.64 192.645l-7.863-9.063" stroke-width="1.2" stroke="#f00" stroke-miterlimit="10" fill="none"/><path d="M66.633 199.852l-3.914 11.34" stroke-width="1.2" stroke="#000" stroke-miterlimit="10" fill="none"/><path d="M62.72 211.19l-3.92 11.337" stroke-width="1.2" stroke="#f00" stroke-miterlimit="10" fill="none"/><path d="M42.91 176.234h8v11h-8zm0 0" fill="#fff"/><use xlink:href="#a" x="42.91" y="184.897" fill="#f00"/><path d="M58.8 222.527l-11.773 2.278" stroke-width="1.2" stroke="#f00" stroke-miterlimit="10" fill="none"/><path d="M47.027 224.805l-11.777 2.28" stroke-width="1.2" stroke="#000" stroke-miterlimit="10" fill="none"/><path d="M54.8 217.027h8v11h-8zm0 0" fill="#fff"/><use xlink:href="#a" x="54.801" y="225.69" fill="#f00"/><path d="M82.953 103.652h15v11h-15zm0 0" fill="#fff"/><g fill="#f00"><use xlink:href="#b" x="82.953" y="112.315"/><use xlink:href="#a" x="89.968" y="112.315"/></g></g></svg>
